src/status/24/smartphone-disconnected.svg

<svg viewBox="0 0 24 24" xmlns="http://www.w3.org/2000/svg">
 <path style="fill:#bf616a" d="M8.75 3C7.793 3 7 3.773 7 4.73L7 19.25C7 20.203 7.793 21 8.75 21l6.5 0C16.207 21 17 20.203 17 19.25L17 4.73C17 3.773 16.207 3 15.25 3ZM8 5l8 0 0 13-8 0zm4 14c .414214 0 1 .110786 1 .525C13 19.939214 12.414214 20 12 20 11.585786 20 11 19.939214 11 19.525 11 19.110786 11.585786 19 12 19Z"/>
</svg>

<svg viewBox="0 0 24 24" xmlns="http://www.w3.org/2000/svg">
 <path d="m8.75 3c-0.957 0-1.75 0.773-1.75 1.73v14.52c0 0.953 0.793 1.75 1.75 1.75h6.5c0.957 0 1.75-0.797 1.75-1.75v-14.52c0-0.957-0.793-1.73-1.75-1.73zm-0.75 2h8v13h-8zm4 14c0.41421 0 1 0.11079 1 0.525s-0.58579 0.475-1 0.475-1-0.060786-1-0.475 0.58579-0.525 1-0.525z" fill="#bf616a"/>
</svg>
